X: 1940
T: Turondale BD
B: australian traditional tunes wiki
B: kameruka bush dance
M:6/8
L:1/8
R: Jig
Q: 3/8=100
K:G
V:1 
"G"B2DB2D|BcB "D"ABA|"G"G2G GAB|"D7"A2FD3|"G"B2DB2D|BcB "D7"ABA|FED FED|"G"B3-D3:|
|:"G"DEF GAB|"D7"c2A F3|DDF  GAB|"G"d2BG3|DEF GAB|"D7"c2AF3|FDD DEF|"G"G3-G3:|
% abcbook-tune_id 6342d5be67c40266ebe558a8


% abcbook-boost 0
% abcbook-tablature 
% abcbook-transpose 
% abcbook-lastupdated 1665409262168
% abcbook-soundfonts 
% abcbook-repeats 3
% NFF Book 2015

